assets/icons/passed-fill.svg

<svg width="24" height="24" viewBox="0 0 24 24" fill="none" xmlns="http://www.w3.org/2000/svg">
<path d="M5.69531 11.3242V17.0043C5.69531 17.0043 6.26332 19.2763 11.9434 19.2763C17.6234 19.2763 18.1914 17.0043 18.1914 17.0043V11.3242" fill="currentColor"/>
<path d="M2.67785 8.62628L11.0219 4.91834C11.3123 4.78932 11.6265 4.72266 11.9443 4.72266C12.2621 4.72266 12.5763 4.78932 12.8667 4.91834L21.2107 8.62628C21.2933 8.66277 21.3635 8.72246 21.4127 8.79809C21.462 8.87371 21.4882 8.96203 21.4882 9.05228C21.4882 9.14254 21.462 9.23085 21.4127 9.30648C21.3635 9.38211 21.2933 9.4418 21.2107 9.47829L12.8667 13.1862C12.5763 13.3152 12.2621 13.3819 11.9443 13.3819C11.6265 13.3819 11.3123 13.3152 11.0219 13.1862L2.67785 9.47829C2.5953 9.4418 2.52513 9.38211 2.47587 9.30648C2.42661 9.23085 2.40039 9.14254 2.40039 9.05228C2.40039 8.96203 2.42661 8.87371 2.47587 8.79809C2.52513 8.72246 2.5953 8.66277 2.67785 8.62628ZM21.6004 9.05228V13.5963V9.05228Z" fill="white"/>
<path d="M21.6004 9.05228V13.5963M2.67785 8.62628L11.0219 4.91834C11.3123 4.78932 11.6265 4.72266 11.9443 4.72266C12.2621 4.72266 12.5763 4.78932 12.8667 4.91834L21.2107 8.62628C21.2933 8.66277 21.3635 8.72246 21.4127 8.79809C21.462 8.87371 21.4882 8.96203 21.4882 9.05228C21.4882 9.14254 21.462 9.23085 21.4127 9.30648C21.3635 9.38211 21.2933 9.4418 21.2107 9.47829L12.8667 13.1862C12.5763 13.3152 12.2621 13.3819 11.9443 13.3819C11.6265 13.3819 11.3123 13.3152 11.0219 13.1862L2.67785 9.47829C2.5953 9.4418 2.52513 9.38211 2.47587 9.30648C2.42661 9.23085 2.40039 9.14254 2.40039 9.05228C2.40039 8.96203 2.42661 8.87371 2.47587 8.79809C2.52513 8.72246 2.5953 8.66277 2.67785 8.62628Z" stroke="currentColor" stroke-linecap="round" stroke-linejoin="round"/>
</svg>

<svg xmlns="http://www.w3.org/2000/svg" width="24" height="24" fill="none" viewBox="0 0 24 24"><path fill="currentColor" d="M5.695 11.324v5.68s.568 2.272 6.248 2.272 6.248-2.272 6.248-2.272v-5.68"/><path fill="#fff" d="m2.678 8.626 8.344-3.708a2.27 2.27 0 0 1 1.845 0l8.344 3.708a.465.465 0 0 1 0 .852l-8.344 3.708a2.27 2.27 0 0 1-1.845 0L2.678 9.478a.466.466 0 0 1 0-.852m18.922.426v4.544z"/><path stroke="currentColor" stroke-linecap="round" stroke-linejoin="round" d="M21.6 9.052v4.544M2.678 8.626l8.344-3.708a2.27 2.27 0 0 1 1.845 0l8.344 3.708a.465.465 0 0 1 0 .852l-8.344 3.708a2.27 2.27 0 0 1-1.845 0L2.678 9.478a.466.466 0 0 1 0-.852"/></svg>
